apps/ledger-live-desktop/src/renderer/images/lending-info-2.svg

<svg xmlns="http://www.w3.org/2000/svg" width="180" height="143" viewBox="0 0 180 143" fill="none">
<rect width="180" height="143" rx="4" fill="white"/>
<g filter="url(#filter0_d)">
<rect x="12" y="47.4968" width="156" height="17.7455" rx="2.22568" fill="white"/>
<rect x="12.2782" y="47.775" width="155.444" height="17.189" rx="1.94747" stroke="#142533" stroke-opacity="0.2" stroke-width="0.55642"/>
</g>
<rect x="16.8564" y="55.815" width="24" height="2" rx="1" fill="#142533" fill-opacity="0.2"/>
<rect x="12" y="40.3969" width="32" height="3" rx="1.5" fill="#142533" fill-opacity="0.3"/>
<rect x="12" y="77.5514" width="40" height="3" rx="1.5" fill="#142533" fill-opacity="0.3"/>
<g filter="url(#filter1_d)">
<rect x="12" y="84.6514" width="156" height="17.7455" rx="2.22568" fill="white"/>
<rect x="12.2782" y="84.9296" width="155.444" height="17.189" rx="1.94747" stroke="#142533" stroke-opacity="0.2" stroke-width="0.55642"/>
</g>
<rect x="16.8564" y="92.415" width="24" height="2" rx="1" fill="#142533" fill-opacity="0.2"/>
<rect x="147.361" y="90.1968" width="15.7821" height="6.65455" rx="1.11284" fill="#8a80db"/>
<rect x="129.152" y="90.1968" width="15.7821" height="6.65455" rx="1.11284" fill="#8a80db"/>
<rect x="110.941" y="90.1968" width="15.7821" height="6.65455" rx="1.11284" fill="#8a80db"/>
<rect x="136" y="121" width="32" height="16" rx="2" fill="#8a80db"/>
<path d="M144.765 127.836H145.525C145.51 127.099 144.882 126.577 143.953 126.577C143.037 126.577 142.349 127.092 142.351 127.864C142.351 128.49 142.796 128.85 143.514 129.036L144.01 129.163C144.481 129.283 144.792 129.43 144.795 129.768C144.792 130.141 144.439 130.391 143.923 130.391C143.429 130.391 143.045 130.169 143.013 129.711H142.236C142.268 130.578 142.913 131.066 143.93 131.066C144.976 131.066 145.583 130.544 145.585 129.775C145.583 129.018 144.959 128.673 144.302 128.518L143.893 128.415C143.535 128.33 143.148 128.179 143.152 127.815C143.154 127.487 143.448 127.246 143.942 127.246C144.413 127.246 144.724 127.465 144.765 127.836ZM148.342 129.624C148.342 130.122 147.986 130.369 147.645 130.369C147.274 130.369 147.027 130.107 147.027 129.692V127.727H146.256V129.811C146.256 130.597 146.703 131.043 147.347 131.043C147.837 131.043 148.182 130.785 148.331 130.418H148.365V131H149.113V127.727H148.342V129.624ZM149.906 132.227H150.677V130.484H150.709C150.831 130.723 151.084 131.058 151.647 131.058C152.418 131.058 152.996 130.446 152.996 129.368C152.996 128.277 152.401 127.685 151.645 127.685C151.067 127.685 150.827 128.032 150.709 128.268H150.665V127.727H149.906V132.227ZM150.662 129.364C150.662 128.729 150.935 128.317 151.432 128.317C151.945 128.317 152.209 128.754 152.209 129.364C152.209 129.977 151.941 130.425 151.432 130.425C150.939 130.425 150.662 129.999 150.662 129.364ZM153.656 132.227H154.427V130.484H154.459C154.581 130.723 154.834 131.058 155.397 131.058C156.168 131.058 156.746 130.446 156.746 129.368C156.746 128.277 156.151 127.685 155.395 127.685C154.817 127.685 154.577 128.032 154.459 128.268H154.415V127.727H153.656V132.227ZM154.412 129.364C154.412 128.729 154.685 128.317 155.182 128.317C155.695 128.317 155.959 128.754 155.959 129.364C155.959 129.977 155.691 130.425 155.182 130.425C154.689 130.425 154.412 129.999 154.412 129.364ZM158.177 126.636H157.406V131H158.177V126.636ZM159.45 132.227C160.051 132.227 160.398 131.918 160.583 131.396L161.898 127.732L161.074 127.727L160.317 130.199H160.283L159.529 127.727H158.711L159.897 131.068L159.831 131.245C159.689 131.618 159.463 131.643 159.126 131.545L158.947 132.146C159.051 132.189 159.239 132.227 159.45 132.227Z" fill="white"/>
<path d="M60.6697 17.7266H61.9375C61.9126 16.4979 60.8651 15.6278 59.3168 15.6278C57.7898 15.6278 56.6428 16.4872 56.6463 17.7727C56.6463 18.8168 57.3885 19.4169 58.5852 19.7259L59.4126 19.9389C60.1974 20.1378 60.7159 20.3828 60.7195 20.9474C60.7159 21.5689 60.1264 21.9844 59.267 21.9844C58.4432 21.9844 57.804 21.6151 57.7507 20.8516H56.4545C56.5078 22.2969 57.5838 23.1101 59.2777 23.1101C61.0213 23.1101 62.0334 22.2401 62.0369 20.9581C62.0334 19.6974 60.9929 19.1222 59.8991 18.8629L59.2173 18.6925C58.6207 18.5504 57.9744 18.2983 57.9815 17.6911C57.9851 17.1442 58.4751 16.7429 59.299 16.7429C60.0838 16.7429 60.6023 17.1087 60.6697 17.7266ZM66.6312 20.706C66.6312 21.5369 66.0382 21.9489 65.47 21.9489C64.8521 21.9489 64.4402 21.5121 64.4402 20.8196V17.5455H63.1547V21.0185C63.1547 22.3288 63.9004 23.071 64.9728 23.071C65.7896 23.071 66.3649 22.6413 66.6135 22.0305H66.6703V23H67.9167V17.5455H66.6312V20.706ZM69.2386 25.0455H70.5241V22.1406H70.5774C70.7798 22.5384 71.2024 23.0959 72.1399 23.0959C73.4254 23.0959 74.3878 22.0767 74.3878 20.2798C74.3878 18.4616 73.397 17.4744 72.1364 17.4744C71.174 17.4744 70.7727 18.0533 70.5774 18.4474H70.5028V17.5455H69.2386V25.0455ZM70.4993 20.2727C70.4993 19.2145 70.9538 18.5291 71.7812 18.5291C72.6371 18.5291 73.0774 19.2571 73.0774 20.2727C73.0774 21.2955 72.63 22.0412 71.7812 22.0412C70.9609 22.0412 70.4993 21.331 70.4993 20.2727ZM75.4886 25.0455H76.7741V22.1406H76.8274C77.0298 22.5384 77.4524 23.0959 78.3899 23.0959C79.6754 23.0959 80.6378 22.0767 80.6378 20.2798C80.6378 18.4616 79.647 17.4744 78.3864 17.4744C77.424 17.4744 77.0227 18.0533 76.8274 18.4474H76.7528V17.5455H75.4886V25.0455ZM76.7493 20.2727C76.7493 19.2145 77.2038 18.5291 78.0312 18.5291C78.8871 18.5291 79.3274 19.2571 79.3274 20.2727C79.3274 21.2955 78.88 22.0412 78.0312 22.0412C77.2109 22.0412 76.7493 21.331 76.7493 20.2727ZM83.0241 15.7273H81.7386V23H83.0241V15.7273ZM85.1451 25.0455C86.1465 25.0455 86.7253 24.5305 87.0343 23.6605L89.2253 17.5526L87.851 17.5455L86.5904 21.6648H86.5336L85.2765 17.5455H83.9128L85.8908 23.1136L85.7807 23.4084C85.5428 24.0298 85.1664 24.0724 84.6053 23.9091L84.307 24.9105C84.481 24.9815 84.7935 25.0455 85.1451 25.0455ZM94.1676 23.1101C95.0234 23.1101 95.5348 22.7088 95.7692 22.2507H95.8118V23H97.0476V19.3494C97.0476 17.9077 95.8722 17.4744 94.8317 17.4744C93.6847 17.4744 92.804 17.9858 92.5199 18.9801L93.7202 19.1506C93.848 18.7777 94.2102 18.4581 94.8388 18.4581C95.4354 18.4581 95.7621 18.7635 95.7621 19.2997V19.321C95.7621 19.6903 95.375 19.7081 94.4126 19.8111C93.3544 19.9247 92.3423 20.2408 92.3423 21.4695C92.3423 22.5419 93.1271 23.1101 94.1676 23.1101ZM94.5014 22.1655C93.9652 22.1655 93.5817 21.9205 93.5817 21.4482C93.5817 20.9545 94.0114 20.7486 94.5866 20.6669C94.924 20.6207 95.5987 20.5355 95.7656 20.4006V21.0433C95.7656 21.6506 95.2756 22.1655 94.5014 22.1655ZM102.651 18.9872C102.474 18.0639 101.735 17.4744 100.457 17.4744C99.1428 17.4744 98.2479 18.1207 98.2514 19.1293C98.2479 19.9247 98.7379 20.4503 99.7855 20.6669L100.716 20.8622C101.217 20.9723 101.451 21.1747 101.451 21.4837C101.451 21.8565 101.046 22.1371 100.435 22.1371C99.8459 22.1371 99.4624 21.8814 99.3523 21.3913L98.0987 21.5121C98.2585 22.5135 99.1001 23.1065 100.439 23.1065C101.803 23.1065 102.765 22.3999 102.768 21.3665C102.765 20.5888 102.264 20.1129 101.234 19.8892L100.304 19.6903C99.75 19.5661 99.5298 19.3743 99.5334 19.0582C99.5298 18.6889 99.9382 18.4332 100.474 18.4332C101.067 18.4332 101.38 18.7564 101.479 19.1151L102.651 18.9872ZM108.14 18.9872C107.962 18.0639 107.223 17.4744 105.945 17.4744C104.631 17.4744 103.736 18.1207 103.74 19.1293C103.736 19.9247 104.226 20.4503 105.274 20.6669L106.204 20.8622C106.705 20.9723 106.939 21.1747 106.939 21.4837C106.939 21.8565 106.534 22.1371 105.924 22.1371C105.334 22.1371 104.951 21.8814 104.841 21.3913L103.587 21.5121C103.747 22.5135 104.588 23.1065 105.927 23.1065C107.291 23.1065 108.253 22.3999 108.257 21.3665C108.253 20.5888 107.752 20.1129 106.723 19.8892L105.792 19.6903C105.238 19.5661 105.018 19.3743 105.022 19.0582C105.018 18.6889 105.426 18.4332 105.963 18.4332C106.556 18.4332 106.868 18.7564 106.968 19.1151L108.14 18.9872ZM111.732 23.1065C113.003 23.1065 113.876 22.4851 114.104 21.5369L112.903 21.402C112.729 21.8636 112.303 22.1051 111.749 22.1051C110.918 22.1051 110.368 21.5582 110.357 20.6243H114.157V20.2301C114.157 18.3161 113.006 17.4744 111.664 17.4744C110.102 17.4744 109.082 18.6214 109.082 20.3047C109.082 22.0163 110.087 23.1065 111.732 23.1065ZM110.361 19.7578C110.4 19.0618 110.915 18.4759 111.682 18.4759C112.42 18.4759 112.918 19.0156 112.925 19.7578H110.361ZM117.968 17.5455H116.892V16.2386H115.607V17.5455H114.833V18.5398H115.607V21.5724C115.6 22.5987 116.345 23.103 117.311 23.0746C117.677 23.0639 117.929 22.9929 118.068 22.9467L117.851 21.9418C117.78 21.9595 117.634 21.9915 117.475 21.9915C117.151 21.9915 116.892 21.8778 116.892 21.3594V18.5398H117.968V17.5455ZM123.276 18.9872C123.099 18.0639 122.36 17.4744 121.082 17.4744C119.768 17.4744 118.873 18.1207 118.876 19.1293C118.873 19.9247 119.363 20.4503 120.411 20.6669L121.341 20.8622C121.842 20.9723 122.076 21.1747 122.076 21.4837C122.076 21.8565 121.671 22.1371 121.06 22.1371C120.471 22.1371 120.087 21.8814 119.977 21.3913L118.724 21.5121C118.884 22.5135 119.725 23.1065 121.064 23.1065C122.428 23.1065 123.39 22.3999 123.393 21.3665C123.39 20.5888 122.889 20.1129 121.859 19.8892L120.929 19.6903C120.375 19.5661 120.155 19.3743 120.158 19.0582C120.155 18.6889 120.563 18.4332 121.099 18.4332C121.692 18.4332 122.005 18.7564 122.104 19.1151L123.276 18.9872Z" fill="black"/>
<line x1="180" y1="115.25" x2="-2.18557e-08" y2="115.25" stroke="#142533" stroke-opacity="0.1" stroke-width="0.5"/>
<defs>
<filter id="filter0_d" x="8.66148" y="45.8276" width="162.677" height="24.4225" filterUnits="userSpaceOnUse" color-interpolation-filters="sRGB">
<feFlood flood-opacity="0" result="BackgroundImageFix"/>
<feColorMatrix in="SourceAlpha" type="matrix" values="0 0 0 0 0 0 0 0 0 0 0 0 0 0 0 0 0 0 127 0"/>
<feOffset dy="1.66926"/>
<feGaussianBlur stdDeviation="1.66926"/>
<feColorMatrix type="matrix" values="0 0 0 0 0 0 0 0 0 0 0 0 0 0 0 0 0 0 0.04 0"/>
<feBlend mode="normal" in2="BackgroundImageFix" result="effect1_dropShadow"/>
<feBlend mode="normal" in="SourceGraphic" in2="effect1_dropShadow" result="shape"/>
</filter>
<filter id="filter1_d" x="8.66148" y="82.9821" width="162.677" height="24.4225" filterUnits="userSpaceOnUse" color-interpolation-filters="sRGB">
<feFlood flood-opacity="0" result="BackgroundImageFix"/>
<feColorMatrix in="SourceAlpha" type="matrix" values="0 0 0 0 0 0 0 0 0 0 0 0 0 0 0 0 0 0 127 0"/>
<feOffset dy="1.66926"/>
<feGaussianBlur stdDeviation="1.66926"/>
<feColorMatrix type="matrix" values="0 0 0 0 0 0 0 0 0 0 0 0 0 0 0 0 0 0 0.04 0"/>
<feBlend mode="normal" in2="BackgroundImageFix" result="effect1_dropShadow"/>
<feBlend mode="normal" in="SourceGraphic" in2="effect1_dropShadow" result="shape"/>
</filter>
</defs>
</svg>

<svg xmlns="http://www.w3.org/2000/svg" width="180" height="143" fill="none" viewBox="0 0 180 143"><rect width="180" height="143" fill="#fff" rx="4"/><g filter="url(#a)"><rect width="156" height="17.745" x="12" y="47.497" fill="#fff" rx="2.226"/><rect width="155.444" height="17.189" x="12.278" y="47.775" stroke="#142533" stroke-opacity=".2" stroke-width=".556" rx="1.947"/></g><rect width="24" height="2" x="16.856" y="55.815" fill="#142533" fill-opacity=".2" rx="1"/><rect width="32" height="3" x="12" y="40.397" fill="#142533" fill-opacity=".3" rx="1.5"/><rect width="40" height="3" x="12" y="77.551" fill="#142533" fill-opacity=".3" rx="1.5"/><g filter="url(#b)"><rect width="156" height="17.745" x="12" y="84.651" fill="#fff" rx="2.226"/><rect width="155.444" height="17.189" x="12.278" y="84.93" stroke="#142533" stroke-opacity=".2" stroke-width=".556" rx="1.947"/></g><rect width="24" height="2" x="16.856" y="92.415" fill="#142533" fill-opacity=".2" rx="1"/><rect width="15.782" height="6.655" x="147.361" y="90.197" fill="#8a80db" rx="1.113"/><rect width="15.782" height="6.655" x="129.152" y="90.197" fill="#8a80db" rx="1.113"/><rect width="15.782" height="6.655" x="110.941" y="90.197" fill="#8a80db" rx="1.113"/><rect width="32" height="16" x="136" y="121" fill="#8a80db" rx="2"/><path fill="#fff" d="M144.765 127.836h.76c-.015-.737-.643-1.259-1.572-1.259-.916 0-1.604.515-1.602 1.287 0 .626.445.986 1.163 1.172l.496.127c.471.12.782.267.785.605-.003.373-.356.623-.872.623-.494 0-.878-.222-.91-.68h-.777c.032.867.677 1.355 1.694 1.355 1.046 0 1.653-.522 1.655-1.291-.002-.757-.626-1.102-1.283-1.257l-.409-.103c-.358-.085-.745-.236-.741-.6.002-.328.296-.569.79-.569.471 0 .782.219.823.59m3.577 1.788c0 .498-.356.745-.697.745-.371 0-.618-.262-.618-.677v-1.965h-.771v2.084c0 .786.447 1.232 1.091 1.232.49 0 .835-.258.984-.625h.034V131h.748v-3.273h-.771zm1.564 2.603h.771v-1.743h.032c.122.239.375.574.938.574.771 0 1.349-.612 1.349-1.69 0-1.091-.595-1.683-1.351-1.683-.578 0-.818.347-.936.583h-.044v-.541h-.759zm.756-2.863c0-.635.273-1.047.77-1.047.513 0 .777.437.777 1.047 0 .613-.268 1.061-.777 1.061-.493 0-.77-.426-.77-1.061m2.994 2.863h.771v-1.743h.032c.122.239.375.574.938.574.771 0 1.349-.612 1.349-1.69 0-1.091-.595-1.683-1.351-1.683-.578 0-.818.347-.936.583h-.044v-.541h-.759zm.756-2.863c0-.635.273-1.047.77-1.047.513 0 .777.437.777 1.047 0 .613-.268 1.061-.777 1.061-.493 0-.77-.426-.77-1.061m3.765-2.728h-.771V131h.771zm1.273 5.591c.601 0 .948-.309 1.133-.831l1.315-3.664-.824-.005-.757 2.472h-.034l-.754-2.472h-.818l1.186 3.341-.066.177c-.142.373-.368.398-.705.3l-.179.601c.104.043.292.081.503.081"/><path fill="#000" d="M60.67 17.727h1.267c-.024-1.23-1.072-2.1-2.62-2.1-1.527 0-2.674.86-2.67 2.146 0 1.044.742 1.644 1.938 1.953l.828.213c.784.199 1.303.444 1.306 1.008-.003.622-.593 1.037-1.452 1.037-.824 0-1.463-.369-1.516-1.132h-1.296c.053 1.445 1.129 2.258 2.823 2.258 1.743 0 2.755-.87 2.759-2.152-.004-1.26-1.044-1.836-2.138-2.095l-.682-.17c-.596-.143-1.243-.395-1.236-1.002.004-.547.494-.948 1.318-.948.785 0 1.303.366 1.37.984m5.961 2.979c0 .83-.593 1.243-1.161 1.243-.618 0-1.03-.437-1.03-1.13v-3.273h-1.285v3.473c0 1.31.745 2.052 1.818 2.052.817 0 1.392-.43 1.64-1.04h.057V23h1.247v-5.454H66.63zm2.608 4.34h1.285V22.14h.053c.203.397.625.955 1.563.955 1.285 0 2.248-1.02 2.248-2.816 0-1.818-.991-2.806-2.252-2.806-.962 0-1.363.58-1.559.973h-.074v-.901h-1.264zm1.26-4.773c0-1.058.455-1.744 1.282-1.744.856 0 1.296.728 1.296 1.744 0 1.023-.447 1.768-1.296 1.768-.82 0-1.282-.71-1.282-1.768m4.99 4.773h1.285V22.14h.053c.203.397.625.955 1.563.955 1.285 0 2.248-1.02 2.248-2.816 0-1.818-.991-2.806-2.252-2.806-.962 0-1.363.58-1.559.973h-.074v-.901h-1.264zm1.26-4.773c0-1.058.455-1.744 1.282-1.744.856 0 1.296.728 1.296 1.744 0 1.023-.447 1.768-1.296 1.768-.82 0-1.282-.71-1.282-1.768m6.275-4.546H81.74V23h1.285zm2.121 9.319c1.002 0 1.58-.515 1.89-1.386l2.19-6.107-1.374-.008-1.26 4.12h-.057l-1.258-4.12h-1.363l1.978 5.569-.11.294c-.238.622-.615.664-1.176.501l-.298 1.002c.174.07.486.134.838.134m9.023-1.936c.855 0 1.367-.401 1.601-.86h.043V23h1.236v-3.65c0-1.442-1.176-1.876-2.216-1.876-1.147 0-2.028.512-2.312 1.506l1.2.17c.128-.372.49-.692 1.119-.692.596 0 .923.306.923.842v.021c0 .37-.387.387-1.35.49-1.058.114-2.07.43-2.07 1.659 0 1.072.785 1.64 1.826 1.64m.333-.944c-.536 0-.92-.245-.92-.718 0-.494.43-.7 1.006-.781.337-.046 1.012-.132 1.179-.266v.642c0 .608-.49 1.123-1.265 1.123m8.15-3.179c-.177-.923-.916-1.513-2.194-1.513-1.314 0-2.21.647-2.206 1.655-.003.796.487 1.321 1.534 1.538l.931.195c.501.11.735.313.735.622 0 .372-.405.653-1.016.653-.59 0-.973-.256-1.083-.746l-1.253.121c.16 1.002 1.001 1.595 2.34 1.595 1.364 0 2.326-.707 2.329-1.74-.003-.778-.504-1.254-1.534-1.478l-.93-.199c-.554-.124-.774-.316-.77-.632-.004-.37.404-.625.94-.625.593 0 .906.323 1.005.682zm5.489 0c-.178-.923-.917-1.513-2.195-1.513-1.314 0-2.209.647-2.205 1.655-.004.796.486 1.321 1.534 1.538l.93.195c.501.11.735.313.735.622 0 .372-.405.653-1.015.653-.59 0-.973-.256-1.083-.746l-1.254.121c.16 1.002 1.001 1.595 2.34 1.595 1.364 0 2.326-.707 2.33-1.74-.004-.778-.505-1.254-1.534-1.478l-.931-.199c-.554-.124-.774-.316-.77-.632-.004-.37.404-.625.941-.625.593 0 .905.323 1.005.682zm3.592 4.12c1.271 0 2.144-.622 2.372-1.57l-1.201-.135c-.174.462-.6.703-1.154.703-.831 0-1.381-.547-1.392-1.48h3.8v-.395c0-1.914-1.151-2.756-2.493-2.756-1.562 0-2.582 1.147-2.582 2.83 0 1.712 1.005 2.803 2.65 2.803m-1.371-3.35c.039-.695.554-1.281 1.321-1.281.738 0 1.236.54 1.243 1.282zm7.607-2.212h-1.076V16.24h-1.285v1.306h-.774v.995h.774v3.032c-.007 1.027.738 1.531 1.704 1.503a2.6 2.6 0 0 0 .757-.128l-.217-1.005c-.071.017-.217.05-.376.05-.324 0-.583-.114-.583-.633v-2.82h1.076zm5.308 1.442c-.177-.923-.916-1.513-2.194-1.513-1.314 0-2.209.647-2.206 1.655-.003.796.487 1.321 1.535 1.538l.93.195c.501.11.735.313.735.622 0 .372-.405.653-1.016.653-.589 0-.973-.256-1.083-.746l-1.253.121c.16 1.002 1.001 1.595 2.34 1.595 1.364 0 2.326-.707 2.329-1.74-.003-.778-.504-1.254-1.534-1.478l-.93-.199c-.554-.124-.774-.316-.771-.632-.003-.37.405-.625.941-.625.593 0 .906.323 1.005.682z"/><path stroke="#142533" stroke-opacity=".1" stroke-width=".5" d="M180 115.25H0"/><defs><filter id="a" width="162.677" height="24.422" x="8.661" y="45.828" color-interpolation-filters="sRGB" filterUnits="userSpaceOnUse"><feFlood flood-opacity="0" result="BackgroundImageFix"/><feColorMatrix in="SourceAlpha" values="0 0 0 0 0 0 0 0 0 0 0 0 0 0 0 0 0 0 127 0"/><feOffset dy="1.669"/><feGaussianBlur stdDeviation="1.669"/><feColorMatrix values="0 0 0 0 0 0 0 0 0 0 0 0 0 0 0 0 0 0 0.04 0"/><feBlend in2="BackgroundImageFix" result="effect1_dropShadow"/><feBlend in="SourceGraphic" in2="effect1_dropShadow" result="shape"/></filter><filter id="b" width="162.677" height="24.422" x="8.661" y="82.982" color-interpolation-filters="sRGB" filterUnits="userSpaceOnUse"><feFlood flood-opacity="0" result="BackgroundImageFix"/><feColorMatrix in="SourceAlpha" values="0 0 0 0 0 0 0 0 0 0 0 0 0 0 0 0 0 0 127 0"/><feOffset dy="1.669"/><feGaussianBlur stdDeviation="1.669"/><feColorMatrix values="0 0 0 0 0 0 0 0 0 0 0 0 0 0 0 0 0 0 0.04 0"/><feBlend in2="BackgroundImageFix" result="effect1_dropShadow"/><feBlend in="SourceGraphic" in2="effect1_dropShadow" result="shape"/></filter></defs></svg>
